X: 14233
T: Funny Tailor, The
R: jig
M: 6/8
K: Gmajor
GED GAB AGA|G2 G G3 G2 A|B2 A Bgf efe|d2 B d3 d2 G/A/|
B2 A Bgf efe|d2 B d3 d2 B/A/|GED GAB AGA|G2 G G3 G2||

